X:1
T:Guldfågel
T:W Peterson-Berger(1867-1942)
T:Text: Snoilsky
T:Guldfågel
T:©CPDL Edition may be freely distributed, duplicated, performed and recorded PA Aglert
T:©CPDL Edition may be freely distributed, duplicated, performed and recorded PA Aglert
T:©CPDL Edition may be freely distributed, duplicated, performed and recorded PA Aglert
T:©CPDL Edition may be freely distributed, duplicated, performed and recorded PA Aglert
T:©CPDL Edition may be freely distributed, duplicated, performed and recorded PA Aglert
C:W Peterson-Berger(1867-1942)
Z:©CPDL Edition may be freely distributed, duplicated, performed and recorded
Z:PA Aglert
%%score [ 1 2 3 4 ]
L:1/8
Q:1/4=110
M:4/4
K:Eb
V:1 treble nm="S"
V:2 treble nm="A"
V:3 treble-8 nm="T"
V:4 bass nm="B"
V:1
"^Con moto."!f! EF | G3 B d2 c2 | c2 B2 z2!p! GG | F3 G!<(! A2!<)! E2 |!>(! (G4!>)! F2)!f! EF | %5
w: Gos- sen|gick till sko- gens|göm- ma från en|läx- a flyk- tigt|lärd * att i|
 G3 B d2 c2 |!p! c4 B2 AG | G3!<(! F G2!<)! A2 |!mf! G6!<(! GG!<)! |!f! e3 e d2 c2 | %10
w: fred och ro få|dröm- ma ö- ver|sa- go- bo- kens|värld, att i|fred och ro få|
 c4 B2!>(! B!>)!A | G3!>(! G G2!>)! F2 |!p! E4- E z!p! GG | G4- G!<(!G=Bc!<)! | %14
w: dröm- ma ö- ver|sa- go- bo- kens|värld. * To- ner|kla- * ra un- der-|
!f!!>(! (d3!>)! =B)!p! G2!pp! GG | G4- G!<(!G=Bc!<)! |!mf!!>(! (d3 =B)!>)!!p! G2 GG | %17
w: ba- * ra loc- ka|ho- * nom i sin|sna- * ra, då en|
!<(! G2 G2 G2 G2!<)! |!f!!>(! G6-!>)!!pp! G z | %19
w: säll- sam få- gel|kvad. *|
[K:C][M:6/8]!p![Q:1/4=70]"^Tranquillo grazioso.""^dolce" G2 (E/F/) G2 c | d2 (B/A/) A2 G | %21
w: Sjung guld- * få- gel,|sjung guld- * få- gel,|
 G2!<(! (E/F/) (Gc)e!<)! | d2 (B/A/) A2 G | G2 G (A>B)c | B2 G E3 | D2 E (FA)c | (d>c)d e3 | %27
w: sjung guld- * få- * gel,|sjung guld- * få- gel,|tyst- nar du * bland|grö- na blad,|blir jag ald- * rig|me- * ra glad,|
 G2 G (^G>^F)G | A2 A _B3 | !courtesy!=B2 B c2 _e | d3- d2 c | c6- | !fermata!c6 |] %33
w: tyst- nar du * bland|grö- na blad,|blir jag ald- rig|me- * ra|glad.||
V:2
!f! ED | E3 G B2 A2 | A2 G2 z2!p! EE | E3 E!<(! E2 E2!<)! |!>(! D4-!>)! D2!f! ED | E3 E B2 A2 | %6
w: Gos- sen|gick till sko- gens|göm- ma från en|läx- a flyk- tigt|lärd * att i|fred och ro få|
!p! C4 C2 CC | E3!<(! E D2!<)! F2 |!mf! D6!<(! DD!<)! |!f! G3 G G2 A2 | =E4 E2!>(! F!>)!F | %11
w: dröm- ma ö- ver|sa- go- bo- kens|värld, att i|fred och ro få|dröm- ma ö- ver|
 G3!>(! !courtesy!_E C2 D2!>)! |!p! E4- E z!p! GG | G4- G!<(!GG!<)!G | %14
w: sa- go- bo- kens|värld. * To- ner|kla- * ra un- der-|
!f!!>(! ^F4!>)!!p! G2!pp! GG | G4- G!<(!GGG!<)! |!mf!!>(! ^F4!>)!!p! G2 GG |!<(! G2 G2 ^F2 F2!<)! | %18
w: ba- ra loc- ka|ho- * nom i sin|sna- ra, då en|säll- sam få- gel|
!f!!>(! !courtesy!=F6-!>)!!pp! F z |[K:C][M:6/8]!p!"^dolce" E2 (C/D/) E2 E | F2 F F2 F | %21
w: kvad. *|Sjung guld- * få- gel,|sjung guld- få- gel,|
 E2!<(! (C/D/) E2 G!<)! | ^F2 F =F2 F | E2 E E2 E | E2 E E3 | C2 C C2 F | F2 F E3 | E2 E E2 E | %28
w: sjung guld- * få- gel,|sjung guld- få- gel,|tyst- nar du bland|grö- na blad,|blir jag ald- rig|me- ra glad,|tyst- nar du bland|
 E2 E F3 | G2 G G2 G | ^F3 =F3 | (_E6 | !fermata!!courtesy!=E6) |] %33
w: grö- na blad,|blir jag ald- rig|me- ra|glad.||
V:3
!f! EF | G3 B d2 c2 | c2 B2 z2!p! cc | c3 c!<(! c2 _c2!<)! |!>(! (B4!>)! A2)!f! GB | B3 B e2 e2 | %6
w: Gos- sen|gick till sko- gens|göm- ma från en|läx- a flyk- tigt|lärd * att i|fred och ro få|
!p! =e4 e2 f_e | c3!<(! A B2!<)! d2 |!mf! f6!<(! ff!<)! |!f! e3 e e2 e2 | _d4 d2!>(! c!>)!c | %11
w: dröm- ma ö- ver|sa- go- bo- kens|värld, att i|fred och ro få|dröm- ma ö- ver|
 e3!>(! B =A2 _A2!>)! |!p! G4- G z z2 | z2!p! ff e!<(!ed!<)!c |!f!!>(! c4!>)!!p! =B2 z2 | %15
w: sa- go- bo- kens|värld. *|To- ner kla- ra un- der-|ba- ra|
 z2!pp! ff =e!<(!ed!<)!c |!mf!!>(! c4!>)!!p! =B2 GG |!<(! G2 G2 =A2 A2!<)! | %18
w: loc- ka ho- nom i sin|sna- ra, då en|säll- sam få- gel|
!f!!>(! =B6-!>)!!pp! B z |[K:C][M:6/8]!p!"^dolce" G2 G G2 G | G2 G G2 G | G2!<(! G G2 G!<)! | %22
w: kvad. *|Sjung guld- få- gel,|sjung guld- få- gel,|sjung guld- få- gel,|
 A2 A B2 B | c2 c c2 c | g2 B c3 | A2 A A2 A | B2 B G3 | c2 c d2 d | c2 c d3 | d2 d c2 c | c3 B3 | %31
w: sjung guld- få- gel,|tyst- nar du bland|grö- na blad,|blir jag ald- rig|me- ra glad,|tyst- nar du bland|grö- na blad,|blir jag ald- rig|ald- rig|
 c3 _A3 | !fermata!G6 |] %33
w: me- ra|glad.|
V:4
!f! E,D, | E,3 G, B,2 A,2 | A,2 G,2 z2!p! CB, | A,3 G,!<(! F,2 F,2!<)! | %4
w: Gos- sen|gick till sko- gens|göm- ma från en|läx- a flyk- tigt|
!>(! B,,4- B,,2!>)!!f! C,B,, | E,3 G, G,2 A,2 |!p! G,4 G,2 F,G, | A,3!<(! C B,2!<)! B,2 | %8
w: lärd * att i|fred och ro få|dröm- ma ö- ver|sa- go- bo- kens|
!mf! =B,6!<(! B,!<)!B, |!f! C3 C !courtesy!_B,2 A,2 | G,4 G,2!>(! A,!>)!A, | %11
w: värld, att i|fred och ro få|dröm- ma ö- ver|
 B,3!>(! B,, B,,2!>)! B,,2 |!p! E,4- E, z z2 | z2!p! DD C!<(!CG,E,!<)! |!f!!>(! D,4!>)!!p! G,2 z2 | %15
w: sa- go- bo- kens|värld. *|To- ner kla- ra un- der-|ba- ra|
 z2!pp! DD C!<(!CG,!<)!=E, |!mf!!>(! D,4!>)!!p! G,2 G,G, |!<(! G,2 G,2 G,2 G,2!<)! | %18
w: loc- ka ho- nom i sin|sna- ra, då en|säll- sam få- gel|
!f!!>(! G,6-!>)!!pp! G, z |[K:C][M:6/8]!p!"^dolce" C,2 C, C,2 C, | C,2 C, C,2 C, | %21
w: kvad. *|Sjung guld- få- gel,|sjung guld- få- gel,|
 C,2!<(! C, C,2 C,!<)! | C,2 C, C,2 C, | C2 C A,2 A, | E,2 E, (A,2 G,) | F,2 E, D,2 D, | %26
w: sjung guld- få- gel,|sjung guld- få- gel,|tyst- nar du bland|grö- na blad, *|blir jag ald- rig|
 G,2 G, C,3 | C2 C B,2 B, | A,2 A, _A,3 | G,2 F, _E,2 C, | D,3 G,3 | _A,3 C3 | !fermata!C,6 |] %33
w: me- ra glad,|tyst- nar du bland|grö- na blad,|blir jag ald- rig|ald- rig|me- ra|glad.|

